svg/uf00c4-the_hunt.svg

<svg height="960" style="" width="1483" xmlns="http://www.w3.org/2000/svg"><path d="m119.593.000005 338.82682 338.826805 54.54538-54.5803 71.17864 71.21357-54.54538 54.54539 211.88028 211.88026 211.9222-211.88027-54.58029-54.54538 71.17864-71.21357 54.58031 54.5803 338.8268-338.826805h-391.11577v84.731145h-90.99045v-84.731145h-279.60096v84.731155h-90.99045v-84.731155zm0 338.107275 324.62463 324.62461 58.44347-58.40153 71.17864 71.17166-58.44346 58.4085 226.08246 226.08948 226.12438-226.08948-58.44345-58.4085 71.17863-71.17166 58.4435 58.40153 324.6246-324.62461h-221.7582l-400.16946 400.16942-400.12749-400.16942z" style="stroke-width:3.57675"/></svg>

<svg xmlns="http://www.w3.org/2000/svg" width="1483" height="960">
    <path d="M119.593 0 458.42 338.827l54.545-54.58 71.179 71.213-54.546 54.545 211.88 211.88 211.923-211.88-54.58-54.545 71.178-71.213 54.58 54.58L1363.407 0H972.291v84.731H881.3V0H601.698v84.731h-90.99V0zm0 338.107 324.625 324.625 58.443-58.402 71.179 71.172-58.444 58.409L741.48 960l226.124-226.09-58.443-58.408 71.178-71.172 58.444 58.402 324.624-324.625h-221.758l-400.17 400.17-400.127-400.17z" style="stroke-width:3.57675"/>
</svg>
